resources/dark/readme.svg

<svg fill="none" height="16" viewBox="0 0 16 16" width="16" xmlns="http://www.w3.org/2000/svg" xmlns:xlink="http://www.w3.org/1999/xlink"><linearGradient id="a" gradientUnits="userSpaceOnUse" x1="8.5" x2="8.5" y1="2" y2="14"><stop offset="0" stop-color="#4384f7"/><stop offset="1" stop-color="#b75ff8"/></linearGradient><path d="m10.75 7.8125v.65625c0 .15469-.1266.28125-.2812.28125h-3.93755c-.15469 0-.28125-.12656-.28125-.28125v-.65625c0-.15469.12656-.28125.28125-.28125h3.93755c.1546 0 .2812.12656.2812.28125zm-.2812 1.6875h-3.93755c-.15469 0-.28125.12656-.28125.28125v.65625c0 .1547.12656.2813.28125.2813h3.93755c.1546 0 .2812-.1266.2812-.2813v-.65625c0-.15469-.1266-.28125-.2812-.28125zm2.5312-4.40859v7.78359c0 .6211-.5039 1.125-1.125 1.125h-6.75c-.62109 0-1.125-.5039-1.125-1.125v-9.75c0-.62109.50391-1.125 1.125-1.125h4.78359c.29771 0 .58361.11953.79451.33047l1.9664 1.96641c.211.20859.3305.49687.3305.79453zm-3-1.875v1.78359h1.7836zm1.875 9.65859v-6.75h-2.4375c-.31172 0-.5625-.25078-.5625-.5625v-2.4375h-3.75v9.75z" fill="url(#a)"/></svg>

<svg width="16" height="16" viewBox="0 0 16 16" fill="none" xmlns="http://www.w3.org/2000/svg">
<path d="M10.75 7.8125V8.46875C10.75 8.62344 10.6234 8.75 10.4688 8.75H6.53125C6.37656 8.75 6.25 8.62344 6.25 8.46875V7.8125C6.25 7.65781 6.37656 7.53125 6.53125 7.53125H10.4688C10.6234 7.53125 10.75 7.65781 10.75 7.8125ZM10.4688 9.5H6.53125C6.37656 9.5 6.25 9.62656 6.25 9.78125V10.4375C6.25 10.5922 6.37656 10.7188 6.53125 10.7188H10.4688C10.6234 10.7188 10.75 10.5922 10.75 10.4375V9.78125C10.75 9.62656 10.6234 9.5 10.4688 9.5ZM13 5.09141V12.875C13 13.4961 12.4961 14 11.875 14H5.125C4.50391 14 4 13.4961 4 12.875V3.125C4 2.50391 4.50391 2 5.125 2H9.90859C10.2063 2 10.4922 2.11953 10.7031 2.33047L12.6695 4.29688C12.8805 4.50547 13 4.79375 13 5.09141ZM10 3.21641V5H11.7836L10 3.21641ZM11.875 12.875V6.125H9.4375C9.12578 6.125 8.875 5.87422 8.875 5.5625V3.125H5.125V12.875H11.875Z" fill="url(#paint0_linear)"/>
<defs>
<linearGradient id="paint0_linear" x1="8.5" y1="2" x2="8.5" y2="14" gradientUnits="userSpaceOnUse">
<stop stop-color="#4384F7"/>
<stop offset="1" stop-color="#B75FF8"/>
</linearGradient>
</defs>
</svg>
